svg/material-icons/highlight_alt/materialiconssharp/24px.svg

<svg xmlns="http://www.w3.org/2000/svg" width="24" height="24" viewBox="0 0 24 24"><path d="M17 5h-2V3h2v2zm2-2v2h2V3h-2zm0 6h2V7h-2v2zm0 4h2v-2h-2v2zm-8 8h2v-2h-2v2zM7 5h2V3H7v2zM3 5h2V3H3v2zm0 12h2v-2H3v2zm0 4h2v-2H3v2zm8-16h2V3h-2v2zM3 9h2V7H3v2zm4 12h2v-2H7v2zm-4-8h2v-2H3v2zm12 2v6l2.29-2.29 2.3 2.29L21 19.59l-2.29-2.29L21 15h-6z"/></svg>

<svg xmlns="http://www.w3.org/2000/svg" enable-background="new 0 0 24 24" height="24" viewBox="0 0 24 24" width="24"><g><rect fill="none" height="24" width="24"/><path d="M17,5h-2V3h2V5z M19,3v2h2V3H19z M19,9h2V7h-2V9z M19,13h2v-2h-2V13z M11,21h2v-2h-2V21z M7,5h2V3H7V5z M3,5h2V3H3V5z M3,17h2v-2H3V17z M3,21h2v-2H3V21z M11,5h2V3h-2V5z M3,9h2V7H3V9z M7,21h2v-2H7V21z M3,13h2v-2H3V13z M15,15v6l2.29-2.29L19.59,21 L21,19.59l-2.29-2.29L21,15H15z"/></g></svg>
